Papirus/24x24/apps/tomato.svg

<svg xmlns="http://www.w3.org/2000/svg" width="24" height="24" version="1">
 <g transform="translate(1,1)">
  <circle fill="#e74c3c" cx="11" cy="11" r="10"/>
  <path fill="#fff" opacity=".2" d="m11 1c-5.5395 0-9.999 4.46-9.999 10 0 0.08386-0.002 0.16664 0 0.25 0.1321-5.423 4.5435-9.75 9.999-9.75s9.867 4.3268 9.999 9.75c0.002-0.08335 0-0.16614 0-0.25 0-5.54-4.459-10-9.999-10z"/>
  <path opacity=".2" d="m20.99 11.209a10 10 0 0 1 -9.99 9.791 10 10 0 0 1 -9.989 -9.709 10 10 0 0 0 -0.011 0.209 10 10 0 0 0 10 10 10 10 0 0 0 10 -10 10 10 0 0 0 -0.0105 -0.291z"/>
  <path fill-rule="evenodd" opacity=".2" d="m8.7315 0.5009c-0.068319 0.00289-0.13785 0.01489-0.20667 0.036942-0.367 0.11762-0.5707 0.47416-0.4565 0.79926l0.2864 0.3158c-4.1512 0.4003-6.3547 4.7802-6.3547 4.7802s1.389 0.26122 4.7392-1.5893c0.9309-0.5142 1.4675-1.0668 1.7738-1.5669-0.0633 0.5158-0.054 1.1772 0.0937 2.0207 0.3712 2.1185 1.9223 3.7024 1.9223 3.7024s1.8769-3.1166-0.13573-6.1714c2.968 2.0164 7.607 1.1401 7.607 1.1401s-2.078-1.9715-4.2842-2.4629c-1.647-0.3667-3.162-0.1271-3.9501 0.059-0.0004-0.0602-0.0105-0.1212-0.0315-0.1809l-0.341-0.47149c-0.1641-0.22685-0.3658-0.42396-0.6619-0.41152z"/>
  <path fill="#a6ef4d" fill-rule="evenodd" d="m8.7315 0.00089628c-0.0683 0.00289-0.1378 0.01489-0.2066 0.036943-0.3671 0.11762-0.5708 0.47413-0.4566 0.79927l0.2864 0.31579c-4.1512 0.4003-6.3547 4.7802-6.3547 4.7802s1.389 0.26122 4.7392-1.5893c0.9309-0.5142 1.4675-1.0668 1.7738-1.5669-0.0633 0.5158-0.054 1.1772 0.0937 2.0207 0.3712 2.1185 1.9223 3.7024 1.9223 3.7024s1.8769-3.1166-0.13573-6.1714c2.968 2.0164 7.607 1.1401 7.607 1.1401s-2.078-1.9715-4.2842-2.4629c-1.647-0.36667-3.162-0.12714-3.9501 0.059-0.0004-0.0602-0.0105-0.12116-0.0315-0.18094l-0.341-0.47145c-0.1641-0.22685-0.3658-0.42396-0.6619-0.41152z"/>
 </g>
</svg>

<svg xmlns="http://www.w3.org/2000/svg" width="24" height="24" version="1">
 <g transform="translate(1,1)">
  <circle style="opacity:0.2" cx="11" cy="11.5" r="10"/>
  <circle fill="#e74c3c" cx="11" cy="11" r="10"/>
  <path style="opacity:0.1;fill:#ffffff" d="M 11,1 A 10,10 0 0 0 1,11 10,10 0 0 0 1.0176,11.25 10,10 0 0 1 11,1.5 10,10 0 0 1 20.99,11.125 10,10 0 0 0 21,11 10,10 0 0 0 11,1 Z"/>
  <path style="opacity:0.2" d="M 8.52,0.54 C 8.16,0.66 7.95,1.01 8.07,1.34 L 8.35,1.65 C 4.2,2.05 2,6.43 2,6.43 2,6.43 3.39,6.69 6.74,4.84 7.67,4.33 8.21,3.78 8.51,3.28 8.45,3.79 8.46,4.45 8.61,5.3 8.98,7.42 10.53,9 10.53,9 10.53,9 12.41,5.88 10.39,2.83 13.36,4.84 18,3.97 18,3.97 18,3.97 15.92,2 13.72,1.51 12.07,1.14 10.55,1.38 9.77,1.56 9.77,1.5 9.76,1.44 9.73,1.38 L 9.39,0.91 C 9.23,0.69 9,0.5 8.85,0.5 8.68,0.5 8.59,0.52 8.52,0.54 Z"/>
  <path fill="#a6ef4d" d="M 8.52,0.04 C 8.16,0.16 7.95,0.51 8.07,0.84 L 8.35,1.15 C 4.2,1.55 2,5.93 2,5.93 2,5.93 3.39,6.19 6.74,4.34 7.67,3.83 8.21,3.28 8.51,2.78 8.45,3.29 8.46,3.95 8.61,4.8 8.98,6.92 10.53,8.5 10.53,8.5 10.53,8.5 12.41,5.38 10.39,2.33 13.36,4.34 18,3.47 18,3.47 18,3.47 15.92,1.5 13.72,1.01 12.07,0.64 10.55,0.88 9.77,1.06 9.77,1 9.76,0.94 9.73,0.88 L 9.39,0.41 C 9.23,0.19 9,0 8.85,0 8.68,0 8.59,0.02 8.52,0.04 Z"/>
  <path style="opacity:0.2;fill:#ffffff" d="M 8.8496,0 C 8.6796,0 8.5895,0.01906 8.5195,0.03906 8.1595,0.15906 7.9503,0.50984 8.0703,0.83984 L 8.1074,0.88086 C 8.188,0.72865 8.3318,0.60164 8.5195,0.53906 8.5895,0.51906 8.6796,0.5 8.8496,0.5 8.9996,0.5 9.2306,0.69016 9.3906,0.91016 L 9.7305,1.3809 C 9.7605,1.4409 9.7695,1.5005 9.7695,1.5605 10.55,1.3805 12.071,1.1398 13.721,1.5098 15.277,1.8565 16.758,2.9345 17.5,3.541 17.792,3.5039 18,3.4707 18,3.4707 18,3.4707 15.921,1.4998 13.721,1.0098 12.071,0.63977 10.55,0.88055 9.7695,1.0605 9.7695,1.0005 9.7605,0.94086 9.7305,0.88086 L 9.3906,0.41016 C 9.2306,0.19016 8.9996,0 8.8496,0 Z M 8.041,1.1895 C 4.0915,1.7697 2,5.9297 2,5.9297 2,5.9297 2.0922,5.947 2.2832,5.9414 2.9938,4.791 5.0534,1.9681 8.3496,1.6504 L 8.0703,1.3398 C 8.0522,1.2901 8.0447,1.2393 8.041,1.1895 Z M 10.391,2.8301 C 11.034,3.802 11.282,4.7812 11.32,5.6641 11.353,4.8783 11.233,3.9919 10.812,3.0879 10.669,3.007 10.528,2.9228 10.391,2.8301 Z"/>
 </g>
</svg>
